X: 1012
T: Allowa Kirk
R: strathspey
M: 4/4
K: Gmajor
|:D/|G>ed>B A<G E>A|G>e d>B d<B g>a|b/a/g/f/ g>B A>G E<A|G>E F<D G2 G>:|
f|g>d (3gab a<e e>f|g>d (3gab e<g d<g|c<a B<g a>B (3ABA|G>E F<D G2 G>f|
g>d (3gab a<e e>f|(3gab (3agf (3efg (3dcB|(3cac (3BgB a>A (3ABA|G>E F<D G2 G2||

